dist/img/tour/shield.svg

<svg width="40" height="40" viewBox="0 0 40 40" fill="none" xmlns="http://www.w3.org/2000/svg">
<path d="M32.8515 5.09313C29.0622 4.41406 25.5726 2.34469 23.8298 1.17164C22.6912 0.405156 21.3669 0 20 0C18.6331 0 17.3088 0.405156 16.1702 1.17164C14.4274 2.34469 10.9379 4.41414 7.14865 5.0932C4.90443 5.49531 3.27553 7.43711 3.27553 9.71016V19.1405C3.27553 22.2559 4.14709 25.2929 5.86608 28.167C7.21084 30.4155 9.0742 32.5645 11.4042 34.5543C15.3219 37.9 19.2013 39.6447 19.3645 39.7173L20 40L20.6356 39.7173C20.7988 39.6447 24.6782 37.9 28.5959 34.5543C30.9258 32.5645 32.7892 30.4155 34.134 28.167C35.853 25.2928 36.7246 22.2559 36.7246 19.1405V9.71008C36.7246 7.43703 35.0957 5.49523 32.8515 5.09313ZM33.5983 19.1405C33.5983 23.785 31.252 28.1541 26.6244 32.1267C23.9344 34.4359 21.2033 35.9411 20.0001 36.552C17.2344 35.1467 6.40154 29.0101 6.40154 19.1405V9.71008C6.40154 8.95266 6.94764 8.305 7.70006 8.17016C12.053 7.39008 15.969 5.07523 17.9158 3.76492C18.5366 3.34703 19.2574 3.12609 20 3.12609C20.7426 3.12609 21.4633 3.34703 22.0841 3.765C24.0309 5.07531 27.9469 7.39016 32.2998 8.17031C33.0522 8.30516 33.5983 8.95273 33.5983 9.71023V19.1405Z" fill="#303030"/>
<path d="M17.5793 23.0025L12.2371 18.001L10.1005 20.2831L17.7807 27.4734L29.9976 13.7739L27.6645 11.6932L17.5793 23.0025Z" fill="#303030"/>
</svg>

<svg width="40" height="40" fill="none" xmlns="http://www.w3.org/2000/svg"><path d="M32.852 5.093c-3.79-.679-7.28-2.748-9.022-3.921A6.835 6.835 0 0020 0a6.835 6.835 0 00-3.83 1.172c-1.743 1.173-5.232 3.242-9.021 3.921A4.691 4.691 0 003.276 9.71v9.43c0 3.116.871 6.153 2.59 9.027 1.345 2.248 3.208 4.398 5.538 6.387 3.918 3.346 7.797 5.09 7.96 5.163L20 40l.636-.283c.163-.072 4.042-1.817 7.96-5.163 2.33-1.99 4.193-4.139 5.538-6.387 1.719-2.874 2.59-5.911 2.59-9.027V9.71a4.691 4.691 0 00-3.872-4.617zm.746 14.047c0 4.645-2.346 9.014-6.974 12.987-2.69 2.309-5.42 3.814-6.624 4.425C17.234 35.147 6.402 29.01 6.402 19.14V9.71c0-.757.546-1.405 1.298-1.54 4.353-.78 8.269-3.095 10.216-4.405a3.721 3.721 0 014.168 0C24.031 5.075 27.947 7.39 32.3 8.17a1.568 1.568 0 011.298 1.54v9.43z" fill="#303030"/><path d="M17.58 23.003L12.236 18l-2.136 2.282 7.68 7.19 12.217-13.7-2.334-2.08-10.085 11.31z" fill="#303030"/></svg>
